X:228
T:Shepherds Hey - Field Town
M:2/2
L:1/8
K:Em
B>c | d>c B>c d2 (3def | g>a g>f e2 B>c |
d>c B>c d2 (3def | g>a g>f e6 :||
z d | c (3ccc B>A G>B | d>c (3Bcd c>B (3ABc |
B>A G2 A>B c>d | e>f g>f e6 :||
